icons/evolvere-blue-folders-flat-vivid-dark-fallback/apps/64/system-software-installer.svg

<svg xmlns="http://www.w3.org/2000/svg" viewBox="0 0 64 64"><g color="#000"><path d="m0 4v30 28l2 2h30 30l2-2v-28-30h-32-32" fill="#758c8f"/><path d="m32 4v30h32v-30z" fill="#f2bb20"/><path d="m32 34h-32v28l2 2h30v-30" fill="#7a4ac1"/><path d="m32 0v4h32v-3l-2-1h-30" fill="#ffed44"/><path d="m0 4v30h32v-30" fill="#3786dd"/><path d="m32 34v30h30l2-2v-28z" fill="#30a77b"/><path d="m2 0l-2 1v3h32v-4" fill="#7acfff"/><path d="m0 3v3l2-2" fill="#83d9ff"/></g><path d="m64 6l-2-2 2-1" fill="#f6d439"/><g color="#000"><path d="m25 16v18h-10l17 21 17-21h-10v-18" fill="#ebf2f9"/><path d="m39 17v17h1v-17h-1m9.188 18l-16.09 19.875.906 1.125 17-21h-1.813" fill-opacity=".097" fill="#404957"/></g></svg>

<?xml version="1.0" encoding="UTF-8" standalone="no"?>
<!-- Created with Inkscape (http://www.inkscape.org/) -->

<svg
   xmlns:dc="http://purl.org/dc/elements/1.1/"
   xmlns:cc="http://creativecommons.org/ns#"
   xmlns:rdf="http://www.w3.org/1999/02/22-rdf-syntax-ns#"
   xmlns:svg="http://www.w3.org/2000/svg"
   xmlns="http://www.w3.org/2000/svg"
   xmlns:sodipodi="http://sodipodi.sourceforge.net/DTD/sodipodi-0.dtd"
   xmlns:inkscape="http://www.inkscape.org/namespaces/inkscape"
   width="64"
   height="64"
   id="svg13094"
   version="1.1"
   inkscape:version="0.91+devel r"
   sodipodi:docname="system-software-installer.svg">
  <sodipodi:namedview
     id="base"
     pagecolor="#ffffff"
     bordercolor="#666666"
     borderopacity="1.0"
     inkscape:pageopacity="0"
     inkscape:pageshadow="2"
     inkscape:zoom="11.313709"
     inkscape:cx="17.206958"
     inkscape:cy="34.742509"
     inkscape:document-units="px"
     inkscape:current-layer="svg13094"
     showgrid="true"
     inkscape:snap-bbox="true"
     inkscape:bbox-paths="true"
     inkscape:bbox-nodes="true"
     inkscape:snap-bbox-edge-midpoints="true"
     inkscape:snap-bbox-midpoints="true"
     inkscape:object-paths="true"
     inkscape:snap-intersection-paths="true"
     inkscape:object-nodes="true"
     inkscape:snap-smooth-nodes="true"
     inkscape:snap-midpoints="true"
     inkscape:snap-object-midpoints="true"
     inkscape:snap-center="true"
     showguides="true"
     inkscape:guide-bbox="true"
     inkscape:window-width="1920"
     inkscape:window-height="1023"
     inkscape:window-x="-10"
     inkscape:window-y="35"
     inkscape:window-maximized="1"
     inkscape:snap-global="true"
     fit-margin-top="0"
     fit-margin-left="0"
     fit-margin-right="0"
     fit-margin-bottom="0"
     showborder="true"
     inkscape:showpageshadow="false"
     inkscape:snap-page="true">
    <inkscape:grid
       type="xygrid"
       id="grid3075"
       empspacing="5"
       visible="true"
       enabled="true"
       snapvisiblegridlinesonly="true"
       originx="1.6362304e-08px"
       originy="18px" />
  </sodipodi:namedview>
  <defs
     id="defs13096" />
  <metadata
     id="metadata13099">
    <rdf:RDF>
      <cc:Work
         rdf:about="">
        <dc:format>image/svg+xml</dc:format>
        <dc:type
           rdf:resource="http://purl.org/dc/dcmitype/StillImage" />
        <dc:title></dc:title>
      </cc:Work>
    </rdf:RDF>
  </metadata>
  <path
     inkscape:connector-curvature="0"
     style="color:#000000;display:inline;overflow:visible;visibility:visible;fill:#758c8f;fill-opacity:1;fill-rule:nonzero;stroke:none;stroke-width:2.28571415;marker:none;enable-background:accumulate"
     d="m 0,4 0,30 0,28 2,2 30,0 30,0 2,-2 L 64,34 64,4 32,4 0,4 Z"
     id="path6498-3" />
  <path
     id="path6498"
     d="m 32,4 0,30 32,0 0,-30 z"
     style="color:#000000;display:inline;overflow:visible;visibility:visible;fill:#f2bb20;fill-opacity:1;fill-rule:nonzero;stroke:none;stroke-width:2.28571415;marker:none;enable-background:accumulate"
     inkscape:connector-curvature="0"
     sodipodi:nodetypes="ccccc" />
  <path
     id="path6505"
     d="m 32,34 -32,0 0,28 2,2 30,0 0,-30 z"
     style="color:#000000;display:inline;overflow:visible;visibility:visible;fill:#7a4ac1;fill-opacity:1;fill-rule:nonzero;stroke:none;stroke-width:2.28571415;marker:none;enable-background:accumulate"
     inkscape:connector-curvature="0" />
  <path
     inkscape:connector-curvature="0"
     id="path6502"
     d="M 32,0 32,4 64,4 64,1 62,0 32,0 Z"
     style="color:#000000;display:inline;overflow:visible;visibility:visible;fill:#ffed44;fill-opacity:1;fill-rule:nonzero;stroke:none;marker:none;enable-background:accumulate" />
  <path
     id="path6491"
     d="M 0,4 0,34 32,34 32,4 Z"
     style="color:#000000;display:inline;overflow:visible;visibility:visible;fill:#3786dd;fill-opacity:1;fill-rule:nonzero;stroke:none;stroke-width:2.28571415;marker:none;enable-background:accumulate"
     inkscape:connector-curvature="0" />
  <path
     id="path6509"
     d="m 32,34 0,30 30,0 2,-2 0,-28 z"
     style="color:#000000;display:inline;overflow:visible;visibility:visible;fill:#30a77b;fill-opacity:1;fill-rule:nonzero;stroke:none;stroke-width:2.28571415;marker:none;enable-background:accumulate"
     inkscape:connector-curvature="0"
     sodipodi:nodetypes="cccccc" />
  <path
     style="color:#000000;display:inline;overflow:visible;visibility:visible;fill:#7acfff;fill-opacity:1;fill-rule:nonzero;stroke:none;stroke-width:2.28571415;marker:none;enable-background:accumulate"
     d="M 2,0 1.6362304e-8,1 0,4 32,4 32,0 Z"
     id="path6495"
     inkscape:connector-curvature="0"
     sodipodi:nodetypes="cccccc" />
  <path
     sodipodi:nodetypes="cccc"
     inkscape:connector-curvature="0"
     id="path4386"
     d="M 0,3 1.6362304e-8,6 2,4 Z"
     style="color:#000000;display:inline;overflow:visible;visibility:visible;fill:#83d9ff;fill-opacity:1;fill-rule:nonzero;stroke:none;stroke-width:2.28571415;marker:none;enable-background:accumulate" />
  <path
     d="M 64,6 62,4 64,3 Z"
     id="path3028"
     style="opacity:1;fill:#f6d439;fill-opacity:1;stroke:none;stroke-width:1;stroke-linecap:butt;stroke-linejoin:miter;stroke-miterlimit:4;stroke-dasharray:none;stroke-dashoffset:0;stroke-opacity:1;marker:none"
     inkscape:connector-curvature="0"
     sodipodi:nodetypes="cccc" />
  <path
     style="color:#000000;display:inline;overflow:visible;visibility:visible;fill:#ebf2f9;fill-opacity:1;fill-rule:nonzero;stroke:none;stroke-width:2.28571415;marker:none;enable-background:accumulate;opacity:1;stroke-linecap:butt;stroke-linejoin:miter;stroke-miterlimit:4;stroke-dasharray:none;stroke-dashoffset:0;stroke-opacity:1"
     id="path3787"
     d="M 25,16 25,34 15,34 32,55 49,34 39,34 39,16 Z"
     inkscape:connector-curvature="0"
     inkscape:transform-center-y="2.3333335"
     sodipodi:nodetypes="cccccccc" />
  <path
     inkscape:connector-curvature="0"
     style="color:#000000;display:inline;overflow:visible;visibility:visible;fill:#404957;fill-opacity:0.09660106;fill-rule:nonzero;stroke:none;stroke-width:1;marker:none;enable-background:accumulate;opacity:1;stroke-linecap:butt;stroke-linejoin:miter;stroke-miterlimit:4;stroke-dasharray:none;stroke-dashoffset:0;stroke-opacity:1"
     d="m 39,17 0,17 1,0 0,-17 -1,0 z M 48.1875,35 32.09375,54.875 33,56 50,35 48.1875,35 Z"
     id="path3074" />
</svg>
